X:1
T:Pastores venid
T:Pastores venid
T:Anonymous
T:© 2012 by Paul R Marchesano. May be freely copied for nonprofit use.
T:© 2012 by Paul R Marchesano. May be freely copied for nonprofit use.
C:Anonymous
Z:© 2012 by Paul R Marchesano. May be freely copied for nonprofit use.
%%score [ 1 2 3 4 ]
L:1/8
Q:1/4=120
M:3/4
K:Gmin
V:1 treble nm="Soprano" snm="S"
V:2 treble nm="Alto" snm="A"
V:3 treble-8 nm="Tenor" snm="T"
V:4 bass nm="Bass" snm="B"
V:1
 z6 | z6 | z6 | z6 :| z6 | z6 | z6 | z2 G>A Bc | d2 G>A Bc | d2 d>d ed |{d} cA c>c dc | BG BB AA | %12
w: |||||||Pa- sto- res ve-|nid. Pa- sto- res ile-|gad aa- do- rar al|Ni- ño, aa- do- rar al|Ni- ño que ha naci- da|
 G6 |] %13
w: ya.|
V:2
 z6 | z6 | z6 | z6 :| z6 | z6 | z6 | z2 D>D GG | A2 G>G FF | F2 F>F GF | FF F>F FF | DG GF ED | %12
w: |||||||Pa- sto- res ve-|nid. Pa- sto- res ile-|gad aa- do- rar al|Ni- ño, aa- do- rar al|Ni- ño que ha naci- da|
 D6 |] %13
w: ya.|
V:3
 G>G GA BG | B2 A4 | A>^G Ad dc |{c} B>A G4 :| d>d de fd | e>d c4 | c>c AB cA | BG B>c dG | %8
w: San Jo- sé al Ni- ño|Je- sús|un be- sco le dio'en la|ca- * ra.|Y'el ni- ño Je- sús le|di- * jo:|"¡A- re me pin- chas las|bar- bas!" Pa- sto- res ve-|
 d2 B>B BA | B2 B>B BB | Ac A>A AA | GB GG G^F | G6 |] %13
w: nid. Pa- sto- res ile-|gad aa- do- rar al|Ni- ño, aa- do- rar al|Ni- ño que ha naci- da|ya.|
V:4
 z6 | z6 | z6 | z6 :| z6 | z6 | z6 | z2 G,>G, F,E, | D,2 E,>E, D,C, | B,,2 B,>B, E,B, | %10
w: |||||||Pa- sto- res ve-|nid. Pa- sto- res ile-|gad aa- do- rar al|
 F,F, F,>F, D,F, | G,G, E,D, C,D, | G,,6 |] %13
w: Ni- ño, aa- do- rar al|Ni- ño que ha naci- da|ya.|

